src/icons/instagram.svg

<svg xmlns="http://www.w3.org/2000/svg" xml:space="preserve" style="fill-rule:evenodd;clip-rule:evenodd;stroke-linejoin:round;stroke-miterlimit:2" viewBox="0 0 511 511"><path d="M510.5 150.235c-1.197-27.151-5.588-45.817-11.877-61.992-6.489-17.169-16.471-32.54-29.55-45.319-12.778-12.977-28.251-23.061-45.221-29.448-16.268-6.289-34.837-10.68-61.989-11.877C334.509.3 325.825 0 256.448 0s-78.062.3-105.315 1.497c-27.151 1.197-45.818 5.592-61.988 11.878C71.972 19.863 56.6 29.846 43.822 42.924 30.845 55.703 20.765 71.175 14.374 88.146c-6.29 16.272-10.681 34.837-11.878 61.988C1.198 177.488.898 186.172.898 255.55s.3 78.062 1.497 105.314c1.197 27.152 5.592 45.818 11.881 61.993 6.489 17.169 16.569 32.54 29.546 45.318 12.778 12.978 28.251 23.061 45.221 29.449 16.272 6.289 34.837 10.68 61.993 11.877 27.248 1.201 35.936 1.497 105.314 1.497s78.062-.296 105.315-1.497c27.151-1.197 45.817-5.588 61.988-11.877a130.7 130.7 0 0 0 74.771-74.767c6.286-16.272 10.68-34.841 11.877-61.993 1.197-27.252 1.498-35.936 1.498-105.314s-.102-78.062-1.299-105.315m-46.017 208.633c-1.099 24.956-5.291 38.432-8.785 47.416-8.586 22.262-26.254 39.93-48.516 48.517-8.984 3.493-22.558 7.685-47.416 8.781-26.953 1.201-35.036 1.497-103.217 1.497s-76.366-.296-103.221-1.497c-24.956-1.096-38.432-5.288-47.416-8.781-11.078-4.095-21.162-10.583-29.347-19.068-8.485-8.287-14.973-18.269-19.068-29.347-3.494-8.984-7.686-22.562-8.781-47.417-1.201-26.952-1.498-35.04-1.498-103.22s.297-76.366 1.498-103.217c1.095-24.956 5.287-38.432 8.781-47.416 4.095-11.082 10.583-21.162 19.17-29.351 8.282-8.485 18.264-14.974 29.346-19.064 8.984-3.494 22.562-7.686 47.417-8.785 26.952-1.198 35.04-1.498 103.216-1.498 68.282 0 76.366.3 103.221 1.498 24.956 1.099 38.432 5.291 47.416 8.785 11.079 4.09 21.162 10.579 29.347 19.064 8.485 8.286 14.974 18.269 19.068 29.351 3.494 8.984 7.686 22.558 8.785 47.416 1.198 26.953 1.498 35.036 1.498 103.217s-.3 76.166-1.498 103.119" style="fill:#fff;fill-rule:nonzero"/><path d="M256.448 124.281c-72.47 0-131.269 58.795-131.269 131.269s58.799 131.269 131.269 131.269c72.473 0 131.268-58.795 131.268-131.269s-58.795-131.269-131.268-131.269m0 216.42c-47.015 0-85.151-38.132-85.151-85.151s38.136-85.151 85.151-85.151c47.018 0 85.15 38.132 85.15 85.151s-38.132 85.151-85.15 85.151M423.556 119.091c0 16.923-13.722 30.645-30.65 30.645-16.923 0-30.645-13.722-30.645-30.645 0-16.927 13.722-30.645 30.645-30.645 16.928 0 30.65 13.718 30.65 30.645" style="fill:#fff;fill-rule:nonzero"/></svg>

<?xml version="1.0" encoding="UTF-8" standalone="no"?>
<!DOCTYPE svg PUBLIC "-//W3C//DTD SVG 1.1//EN" "http://www.w3.org/Graphics/SVG/1.1/DTD/svg11.dtd">
<svg width="100%" height="100%" viewBox="0 0 511 511" version="1.1" xmlns="http://www.w3.org/2000/svg" xmlns:xlink="http://www.w3.org/1999/xlink" xml:space="preserve" style="fill-rule:evenodd;clip-rule:evenodd;stroke-linejoin:round;stroke-miterlimit:2;">
    <path d="M510.5,150.235C509.303,123.084 504.912,104.418 498.623,88.243C492.134,71.074 482.152,55.703 469.073,42.924C456.295,29.947 440.822,19.863 423.852,13.476C407.584,7.187 389.015,2.796 361.863,1.599C334.509,0.3 325.825,-0 256.448,-0C187.07,-0 178.386,0.3 151.133,1.497C123.982,2.694 105.315,7.089 89.145,13.375C71.972,19.863 56.6,29.846 43.822,42.924C30.845,55.703 20.765,71.175 14.374,88.146C8.084,104.418 3.693,122.983 2.496,150.134C1.198,177.488 0.898,186.172 0.898,255.55C0.898,324.928 1.198,333.612 2.395,360.864C3.592,388.016 7.987,406.682 14.276,422.857C20.765,440.026 30.845,455.397 43.822,468.175C56.6,481.153 72.073,491.236 89.043,497.624C105.315,503.913 123.88,508.304 151.036,509.501C178.284,510.702 186.972,510.998 256.35,510.998C325.728,510.998 334.412,510.702 361.665,509.501C388.816,508.304 407.482,503.913 423.653,497.624C457.995,484.346 485.146,457.195 498.424,422.857C504.71,406.585 509.104,388.016 510.301,360.864C511.498,333.612 511.799,324.928 511.799,255.55C511.799,186.172 511.697,177.488 510.5,150.235ZM464.483,358.868C463.384,383.824 459.192,397.3 455.698,406.284C447.112,428.546 429.444,446.214 407.182,454.801C398.198,458.294 384.624,462.486 359.766,463.582C332.813,464.783 324.73,465.079 256.549,465.079C188.368,465.079 180.183,464.783 153.328,463.582C128.372,462.486 114.896,458.294 105.912,454.801C94.834,450.706 84.75,444.218 76.565,435.733C68.08,427.446 61.592,417.464 57.497,406.386C54.003,397.402 49.811,383.824 48.716,358.969C47.515,332.017 47.218,323.929 47.218,255.749C47.218,187.568 47.515,179.383 48.716,152.532C49.811,127.576 54.003,114.1 57.497,105.116C61.592,94.034 68.08,83.954 76.667,75.765C84.949,67.28 94.931,60.791 106.013,56.701C114.997,53.207 128.575,49.015 153.43,47.916C180.382,46.718 188.47,46.418 256.646,46.418C324.928,46.418 333.012,46.718 359.867,47.916C384.823,49.015 398.299,53.207 407.283,56.701C418.362,60.791 428.445,67.28 436.63,75.765C445.115,84.051 451.604,94.034 455.698,105.116C459.192,114.1 463.384,127.674 464.483,152.532C465.681,179.485 465.981,187.568 465.981,255.749C465.981,323.929 465.681,331.915 464.483,358.868Z" style="fill:white;fill-rule:nonzero;"/>
    <path d="M256.448,124.281C183.978,124.281 125.179,183.076 125.179,255.55C125.179,328.024 183.978,386.819 256.448,386.819C328.921,386.819 387.716,328.024 387.716,255.55C387.716,183.076 328.921,124.281 256.448,124.281ZM256.448,340.701C209.433,340.701 171.297,302.569 171.297,255.55C171.297,208.531 209.433,170.399 256.448,170.399C303.466,170.399 341.598,208.531 341.598,255.55C341.598,302.569 303.466,340.701 256.448,340.701Z" style="fill:white;fill-rule:nonzero;"/>
    <path d="M423.556,119.091C423.556,136.014 409.834,149.736 392.906,149.736C375.983,149.736 362.261,136.014 362.261,119.091C362.261,102.164 375.983,88.446 392.906,88.446C409.834,88.446 423.556,102.164 423.556,119.091Z" style="fill:white;fill-rule:nonzero;"/>
</svg>
